X: 6
T: Inventio 6
C: Johann Sebastian Bach
%%abc-version 2.0
%%abcx-abcm2ps-target-version 5.9.1 (29 Sep 2008)
%%abc-creator hum2abc beta
%%abcx-conversion-date 2021/01/28 10:10:55
%%abc-copyright Copyright 1994, David Huron
%%abc-edited-by David Huron
%%abcx-initial-encoding-date 1986 November
%%gracespace 0 6 6
%%humdrum-veritas 4189210965
%%humdrum-veritas-data 1462927495
%%linebreak <none>
%%barnumbers 0
L: 1/16
M: 3/8
N: Derived from inven06.krn
Q: 1/8=112
%%staves {1 2}
V: 1 clef=treble
V: 2 clef=bass
K: E
[V:1] z e2d2=d- [I:setbarnb 2]| 
[V:2] E,2F,2G,2 | 
[V:1] dc2B2A- | 
[V:2] A,2B,2C2 | 
[V:1] AG2F2G/A/ | 
[V:2] D2EDCB, | 
[V:1] GB/A/BG/F/GE/D/ | 
[V:2] E2E,2 z2 | 
[V:1] E2F2G2 | 
[V:2] z E,2D,2=D,- | 
[V:1] A2B2c2 | 
[V:2] D,C,2B,,2A,,- | 
[V:1] d2edcB | 
[V:2] A,,G,,2F,,2G,,/A,,/ | 
[V:1] e2E2 z2 | 
[V:2] G,,B,,/A,,/B,,G,,/F,,/G,,E,,/D,,/ | 
[V:1] z g2e2c- | 
[V:2] E,,2C,2E,2 | 
[V:1] ce/d/ec^AF- | 
[V:2] F,2^A,2C2 | 
[V:1] Ff2d2B- | 
[V:2] D,,2B,,2D,2 | 
[V:1] Bd/c/dBGE- | 
[V:2] E,2G,2B,2 | 
[V:1] Ee2c2^A- | 
[V:2] C,,2C,2E,2 | 
[V:1] Ag2f2e- | 
[V:2] F,2G,2^A,2 | 
[V:1] ed2c2B | 
[V:2] B,2E,2G,2 | 
[V:1] ^AE/D/EA/G/AB/A/ | 
[V:2] F,C^A,CE,C | 
[V:1] BDCBC^A | 
[V:2] D,2E,2F,2 | 
[V:1] B2 z Bdf | 
[V:2] B,,B,/^A,/B,F,/E,/F,D,/C,/ | 
[V:1] b2 z bfd | 
[V:2] D,F,/E,/F,D,/C,/D,B,,/^A,,/ | 
[V:1] BFDB, z2 :||:  
[V:2] B,,4B,,,2 :||:  
[V:1] B,2C2D2 [I:setbarnb 22]| 
[V:2] z B,2^A,2=A,- | 
[V:1] E2F2G2 | 
[V:2] A,G,2F,2E,- | 
[V:1] ^A2BAGF | 
[V:2] E,D,2C,2D,/E,/ | 
[V:1] B2B,2 z2 | 
[V:2] D,F,/E,/F,D,/C,/D,B,,/^A,,/ | 
[V:1] z b2^a2=a- | 
[V:2] B,,2C,2D,2 | 
[V:1] ag2f2e- | 
[V:2] E,2F,2G,2 | 
[V:1] ed2c2d/e/ | 
[V:2] ^A,2B,A,G,F, | 
[V:1] df/e/fd/c/dB/^A/ | 
[V:2] B,2B,,2 z2 | 
[V:1] Bd/c/dg/^^f/gc/B/ | 
[V:2] G,2B,2D2 | 
[V:1] ce/d/e^a/g/ad/c/ | 
[V:2] ^^F,2^A,2D2 | 
[V:1] dg/^^f/gb/^a/bd/^^c/ | 
[V:2] G,2B,2D2 | 
[V:1] d^a/g/a^^f/^e/fd/^^c/ | 
[V:2] D,2D2C2 | 
[V:1] d=a2g2f- | 
[V:2] ^B,2C2D2 | 
[V:1] fe/d/ec/^B/ce/d/ | 
[V:2] G,2C2=B,2 | 
[V:1] eg2f2e- | 
[V:2] ^A,2B,2C2 | 
[V:1] ed/c/dB/^A/Bc/B/ | 
[V:2] F,2B,2D2 | 
[V:1] ce2d2c- | 
[V:2] ^^F,2G,2^A,2 | 
[V:1] cB/^A/BG/^^F/G=A/G/ | 
[V:2] D,2G,2B,2 | 
[V:1] Ac/B/cA/G/Ae/d/ | 
[V:2] C,2 z2 C2- | 
[V:1] e^^F/^E/F^A/G/AB,/^A,/ | 
[V:2] C2^A,2^^F,2 | 
[V:1] B,GEC^A,^^F | 
[V:2] G,2C,2D,2 | 
[V:1] GDB,G, z2 | 
[V:2] G,,2 z G,,G,F,- | 
[V:1] E2F2G2 | 
[V:2] F,E,2D,2=D,- | 
[V:1] A2B2c2 | 
[V:2] D,C,2B,,2A,,- | 
[V:1] d2edcB | 
[V:2] A,,G,,2F,,2G,,/A,,/ | 
[V:1] e3B/A/BG/F/ | 
[V:2] G,,B,,/A,,/B,,G,,/F,,/G,,E,,/D,,/ | 
[V:1] Ge2d2=d- | 
[V:2] E,,2F,,2G,,2 | 
[V:1] dc2B2A- | 
[V:2] A,,2B,,2C,2 | 
[V:1] AG2F2G/A/ | 
[V:2] D,2E,D,C,B,, | 
[V:1] GB/A/BG/F/GE/D/ | 
[V:2] E,3B,/A,/B,G,/F,/ | 
[V:1] E2F2A2 | 
[V:2] G,C2A,2F,- | 
[V:1] B2d2f2 | 
[V:2] F,A,/G,/A,F,D,B,,- | 
[V:1] D2E2G2 | 
[V:2] B,,B,2G,2E,- | 
[V:1] A2c2e2 | 
[V:2] E,G,/F,/G,E,C,A,,- | 
[V:1] C2F2A2 | 
[V:2] A,,A,2F,2D,- | 
[V:1] B2c2d2 | 
[V:2] D,C2B,2A,- | 
[V:1] e2c2A2 | 
[V:2] A,G,2F,2E, | 
[V:1] f6- | 
[V:2] D,A,/G,/A,D,/C,/D,G,/F,/ | 
[V:1] fedcBA | 
[V:2] G,2A,2B,2 | 
[V:1] GE/D/EG/F/GB/A/ | 
[V:2] E,2 z EB,G, | 
[V:1] BG/F/GB/A/Be/d/ | 
[V:2] E,B,G,E,B,,G,, | 
[V:1] eBGE z2 :|]  
[V:2] E,,4E,2 :|]  


